SVG_Azure_Grouped/Data/SQL Data Warehouse.svg

<?xml version="1.0" encoding="UTF-8" standalone="no"?>
<!-- Generated by Microsoft Visio, SVG Export SQL Data Warehouse.svg Page-1 -->

<svg
   xmlns:dc="http://purl.org/dc/elements/1.1/"
   xmlns:cc="http://creativecommons.org/ns#"
   xmlns:rdf="http://www.w3.org/1999/02/22-rdf-syntax-ns#"
   xmlns:svg="http://www.w3.org/2000/svg"
   xmlns="http://www.w3.org/2000/svg"
   xmlns:sodipodi="http://sodipodi.sourceforge.net/DTD/sodipodi-0.dtd"
   xmlns:inkscape="http://www.inkscape.org/namespaces/inkscape"
   width="0.78733599in"
   height="0.78735542in"
   viewBox="0 0 56.6881 56.689901"
   xml:space="preserve"
   class="st7"
   version="1.1"
   id="svg71"
   sodipodi:docname="SQL Data Warehouse.svg"
   style="font-size:12px;overflow:visible;color-interpolation-filters:sRGB;fill:none;fill-rule:evenodd;stroke-linecap:square;stroke-miterlimit:3"
   inkscape:version="0.92.5 (2060ec1f9f, 2020-04-08)"><metadata
   id="metadata75"><rdf:RDF><cc:Work
       rdf:about=""><dc:format>image/svg+xml</dc:format><dc:type
         rdf:resource="http://purl.org/dc/dcmitype/StillImage" /></cc:Work></rdf:RDF></metadata><sodipodi:namedview
   pagecolor="#ffffff"
   bordercolor="#666666"
   borderopacity="1"
   objecttolerance="10"
   gridtolerance="10"
   guidetolerance="10"
   inkscape:pageopacity="0"
   inkscape:pageshadow="2"
   inkscape:window-width="640"
   inkscape:window-height="480"
   id="namedview73"
   showgrid="false"
   inkscape:zoom="1.4193119"
   inkscape:cx="37.795128"
   inkscape:cy="37.786193"
   inkscape:window-x="0"
   inkscape:window-y="0"
   inkscape:window-maximized="0"
   inkscape:current-layer="svg71" />
	<style
   type="text/css"
   id="style2">
	<![CDATA[
		.st1 {fill:url(#grad0-6);stroke:none;stroke-linecap:butt;stroke-width:34}
		.st2 {fill:#50e6ff;stroke:none;stroke-linecap:butt;stroke-width:34}
		.st3 {fill:url(#grad0-12);stroke:none;stroke-linecap:butt;stroke-width:34}
		.st4 {fill:#e8e8e8}
		.st5 {stroke:none;stroke-linecap:butt;stroke-width:34}
		.st6 {fill:#32bedd;stroke:none;stroke-linecap:butt;stroke-width:34}
		.st7 {fill:none;fill-rule:evenodd;font-size:12px;overflow:visible;stroke-linecap:square;stroke-miterlimit:3}
	]]>
	</style>

	<defs
   id="Patterns_And_Gradients">
		<linearGradient
   id="grad0-6"
   x1="0"
   y1="85.145184"
   x2="43.938889"
   y2="85.145184"
   gradientTransform="scale(1.035074,0.96611454)"
   gradientUnits="userSpaceOnUse">
			<stop
   offset="0"
   stop-color="#b3b2b3"
   stop-opacity="1"
   id="stop4" />
			<stop
   offset="0.38"
   stop-color="#afaeaf"
   stop-opacity="1"
   id="stop6" />
			<stop
   offset="0.76"
   stop-color="#a2a2a2"
   stop-opacity="1"
   id="stop8" />
			<stop
   offset="1"
   stop-color="#979797"
   stop-opacity="1"
   id="stop10" />
		</linearGradient>
		<linearGradient
   id="grad0-12"
   x1="0"
   y1="97.196146"
   x2="28.244518"
   y2="97.196146"
   gradientTransform="scale(1.0058589,0.99417522)"
   gradientUnits="userSpaceOnUse">
			<stop
   offset="0"
   stop-color="#005ba1"
   stop-opacity="1"
   id="stop13" />
			<stop
   offset="0.07"
   stop-color="#0060a9"
   stop-opacity="1"
   id="stop15" />
			<stop
   offset="0.36"
   stop-color="#0071c8"
   stop-opacity="1"
   id="stop17" />
			<stop
   offset="0.52"
   stop-color="#0078d4"
   stop-opacity="1"
   id="stop19" />
			<stop
   offset="0.64"
   stop-color="#0074cd"
   stop-opacity="1"
   id="stop21" />
			<stop
   offset="0.82"
   stop-color="#006abb"
   stop-opacity="1"
   id="stop23" />
			<stop
   offset="1"
   stop-color="#005ba1"
   stop-opacity="1"
   id="stop25" />
		</linearGradient>
	</defs>
	<g
   id="g69"
   transform="translate(-34.000441,-34.0044)">
		<title
   id="title29">Page-1</title>
		<g
   id="group19196-1"
   transform="translate(34,-34.0157)">
			<title
   id="title31">SQL Data Warehouse.19196</title>
			<g
   id="group19197-2">
				<title
   id="title33">Icon-databases-125</title>
				<g
   id="shape19198-3"
   transform="translate(0,-14.2399)">
					<title
   id="title35">Sheet.19198</title>
					<path
   d="M 22.74,82.26 0,95.19 v 3.21 h 4.18 v 24.27 H 8.29 V 98.4 h 28.89 v 26.31 H 41.3 V 98.4 h 4.18 v -3.21 z"
   class="st1"
   id="path37"
   inkscape:connector-curvature="0"
   style="fill:url(#grad0-6);stroke:none;stroke-width:34;stroke-linecap:butt" />
				</g>
				<g
   id="shape19199-7"
   transform="translate(12.4058,-16.2742)">
					<title
   id="title40">Sheet.19199</title>
					<path
   d="m 0,124.71 h 8.26 v -8.07 H 0 Z m 12.37,0 h 8.26 v -8.07 H 12.47 Z M 0,112.64 h 8.26 v -8.17 H 0 Z m 12.47,-8.17 v 8.17 h 8.16 v -8.17 z"
   class="st2"
   id="path42"
   inkscape:connector-curvature="0"
   style="fill:#50e6ff;stroke:none;stroke-width:34;stroke-linecap:butt" />
				</g>
				<g
   id="shape19200-9"
   transform="translate(28.2785)">
					<title
   id="title45">Sheet.19200</title>
					<path
   d="M 14.07,101.06 C 6.22,101.06 0,99.06 0,96.63 v 23.64 c 0,2.44 6.25,4.41 14,4.44 h 0.21 c 7.85,0 14.2,-2 14.2,-4.44 V 96.63 c -0.13,2.43 -6.49,4.43 -14.34,4.43 z"
   class="st3"
   id="path47"
   inkscape:connector-curvature="0"
   style="fill:url(#grad0-12);stroke:none;stroke-width:34;stroke-linecap:butt" />
				</g>
				<g
   id="shape19201-13"
   transform="translate(28.2785,-23.6443)">
					<title
   id="title50">Sheet.19201</title>
					<path
   d="m 28.28,120.27 c 0,2.44 -6.36,4.44 -14.21,4.44 -7.85,0 -14.07,-2 -14.07,-4.44 0,-2.43 6.36,-4.43 14.21,-4.43 7.85,0 14.2,1.97 14.2,4.43 z"
   class="st4"
   id="path52"
   inkscape:connector-curvature="0"
   style="fill:#e8e8e8" />
					<path
   d="m 28.28,120.27 c 0,2.44 -6.36,4.44 -14.21,4.44 -7.85,0 -14.07,-2 -14.07,-4.44 0,-2.43 6.36,-4.43 14.21,-4.43 7.85,0 14.2,1.97 14.2,4.43"
   class="st5"
   id="path54"
   inkscape:connector-curvature="0"
   style="stroke:none;stroke-width:34;stroke-linecap:butt" />
				</g>
				<g
   id="shape19202-16"
   transform="translate(31.4734,-25.5118)">
					<title
   id="title57">Sheet.19202</title>
					<path
   d="m 21.79,121.87 c 0,1.57 -4.9,2.84 -10.91,2.84 -6.02,0 -10.88,-1.37 -10.88,-2.84 0,-1.46 4.86,-2.83 10.88,-2.83 6.01,0 10.91,1.27 10.91,2.83 z"
   class="st2"
   id="path59"
   inkscape:connector-curvature="0"
   style="fill:#50e6ff;stroke:none;stroke-width:34;stroke-linecap:butt" />
				</g>
				<g
   id="shape19203-18"
   transform="translate(33.7166,-25.6119)">
					<title
   id="title62">Sheet.19203</title>
					<path
   d="m 8.63,122.54 a 29.1962,28.6466 -180 0 0 -8.63,1.07 28.8903,28.3465 -180 0 0 8.63,1.1 28.8903,28.3465 -180 0 0 8.64,-1.1 29.1962,28.6466 -180 0 0 -8.64,-1.07 z"
   class="st6"
   id="path64"
   inkscape:connector-curvature="0"
   style="fill:#32bedd;stroke:none;stroke-width:34;stroke-linecap:butt" />
				</g>
			</g>
		</g>
	</g>
</svg>

<?xml version="1.0" encoding="UTF-8" standalone="no"?>
<!DOCTYPE svg PUBLIC "-//W3C//DTD SVG 1.1//EN" "http://www.w3.org/Graphics/SVG/1.1/DTD/svg11.dtd">
<!-- Generated by Microsoft Visio, SVG Export SQL Data Warehouse.svg Page-1 -->
<svg xmlns="http://www.w3.org/2000/svg" xmlns:xlink="http://www.w3.org/1999/xlink" xmlns:ev="http://www.w3.org/2001/xml-events"
		width="1.73185in" height="1.73206in" viewBox="0 0 124.693 124.709" xml:space="preserve" color-interpolation-filters="sRGB"
		class="st7">
	<style type="text/css">
	<![CDATA[
		.st1 {fill:url(#grad0-6);stroke:none;stroke-linecap:butt;stroke-width:34}
		.st2 {fill:#50e6ff;stroke:none;stroke-linecap:butt;stroke-width:34}
		.st3 {fill:url(#grad0-12);stroke:none;stroke-linecap:butt;stroke-width:34}
		.st4 {fill:#e8e8e8}
		.st5 {stroke:none;stroke-linecap:butt;stroke-width:34}
		.st6 {fill:#32bedd;stroke:none;stroke-linecap:butt;stroke-width:34}
		.st7 {fill:none;fill-rule:evenodd;font-size:12px;overflow:visible;stroke-linecap:square;stroke-miterlimit:3}
	]]>
	</style>

	<defs id="Patterns_And_Gradients">
		<linearGradient id="grad0-6" x1="0" y1="0" x2="1" y2="0" gradientTransform="rotate(90 0.5 0.5)">
			<stop offset="0" stop-color="#b3b2b3" stop-opacity="1"/>
			<stop offset="0.38" stop-color="#afaeaf" stop-opacity="1"/>
			<stop offset="0.76" stop-color="#a2a2a2" stop-opacity="1"/>
			<stop offset="1" stop-color="#979797" stop-opacity="1"/>
		</linearGradient>
		<linearGradient id="grad0-12" x1="0" y1="0" x2="1" y2="0" gradientTransform="rotate(0 0.5 0.5)">
			<stop offset="0" stop-color="#005ba1" stop-opacity="1"/>
			<stop offset="0.07" stop-color="#0060a9" stop-opacity="1"/>
			<stop offset="0.36" stop-color="#0071c8" stop-opacity="1"/>
			<stop offset="0.52" stop-color="#0078d4" stop-opacity="1"/>
			<stop offset="0.64" stop-color="#0074cd" stop-opacity="1"/>
			<stop offset="0.82" stop-color="#006abb" stop-opacity="1"/>
			<stop offset="1" stop-color="#005ba1" stop-opacity="1"/>
		</linearGradient>
	</defs>
	<g>
		<title>Page-1</title>
		<g id="group18760-1" transform="translate(34,-34.0157)">
			<title>SQL Data Warehouse.18760</title>
			<g id="group18761-2">
				<title>Icon-databases-125</title>
				<g id="shape18762-3" transform="translate(0,-14.2399)">
					<title>Sheet.18762</title>
					<path d="M22.74 82.26 L0 95.19 L0 98.4 L4.18 98.4 L4.18 122.67 L8.29 122.67 L8.29 98.4 L37.18 98.4 L37.18 124.71
								 L41.3 124.71 L41.3 98.4 L45.48 98.4 L45.48 95.19 L22.74 82.26 Z" class="st1"/>
				</g>
				<g id="shape18763-7" transform="translate(12.4058,-16.2742)">
					<title>Sheet.18763</title>
					<path d="M0 124.71 L8.26 124.71 L8.26 116.64 L0 116.64 L0 124.71 ZM12.37 124.71 L20.63 124.71 L20.63 116.64 L12.47
								 116.64 L12.37 124.71 ZM0 112.64 L8.26 112.64 L8.26 104.47 L0 104.47 L0 112.64 ZM12.47 104.47 L12.47
								 112.64 L20.63 112.64 L20.63 104.47 L12.47 104.47 Z" class="st2"/>
				</g>
				<g id="shape18764-9" transform="translate(28.2785,0)">
					<title>Sheet.18764</title>
					<path d="M14.07 101.06 C6.22 101.06 0 99.06 0 96.63 L0 120.27 C0 122.71 6.25 124.68 14 124.71 L14.21 124.71 C22.06
								 124.71 28.41 122.71 28.41 120.27 L28.41 96.63 C28.28 99.06 21.92 101.06 14.07 101.06 Z"
							class="st3"/>
				</g>
				<g id="shape18765-13" transform="translate(28.2785,-23.6443)">
					<title>Sheet.18765</title>
					<path d="M28.28 120.27 C28.28 122.71 21.92 124.71 14.07 124.71 C6.22 124.71 0 122.71 0 120.27 C0 117.84 6.36
								 115.84 14.21 115.84 C22.06 115.84 28.41 117.81 28.41 120.27 L28.28 120.27 Z" class="st4"/>
					<path d="M28.28 120.27 C28.28 122.71 21.92 124.71 14.07 124.71 C6.22 124.71 0 122.71 0 120.27 C0 117.84 6.36
								 115.84 14.21 115.84 C22.06 115.84 28.41 117.81 28.41 120.27" class="st5"/>
				</g>
				<g id="shape18766-16" transform="translate(31.4734,-25.5118)">
					<title>Sheet.18766</title>
					<path d="M21.79 121.87 C21.79 123.44 16.89 124.71 10.88 124.71 C4.86 124.71 0 123.34 0 121.87 C0 120.41 4.86
								 119.04 10.88 119.04 C16.89 119.04 21.79 120.31 21.79 121.87 Z" class="st2"/>
				</g>
				<g id="shape18767-18" transform="translate(33.7166,-25.6119)">
					<title>Sheet.18767</title>
					<path d="M8.63 122.54 A29.1962 28.6466 -180 0 0 0 123.61 A28.8903 28.3465 -180 0 0 8.63 124.71 A28.8903 28.3465
								 -180 0 0 17.27 123.61 A29.1962 28.6466 -180 0 0 8.63 122.54 Z" class="st6"/>
				</g>
			</g>
		</g>
	</g>
</svg>
